svgs/facer.svg

<svg xmlns="http://www.w3.org/2000/svg" viewBox="0 0 24 24"><path d="m7.633 21.977.025-7.611c.142-.412.381-.714.761-.962.503-.328.179-.309 5.311-.309 2.496 0 4.548.014 4.558.032.019.029-1.721 3.535-1.805 3.638l-5.18.048-.001.087-.042 5.05-3.627.027Zm2.11-6.436a.799.799 0 0 0 .338-.463c.08-.471-.333-.851-.809-.744-.399.09-.624.636-.399.971a.672.672 0 0 0 .87.236Zm-6.375 6.362c-.639-.172-1.182-.75-1.317-1.403L2.01 3.51c.131-.915.565-1.397 1.369-1.51h17.199l.222.089c.513.208.965.678 1.114 1.158.097.314.104.837.016 1.137-.187.635-.765 1.149-1.43 1.272l-14.774.042v7.331c0 8.077.016 7.533-.24 8.014-.372.698-1.308 1.077-2.118.859Zm.846-17.501c.162-.084.277-.297.299-.554.017-.189.006-.242-.072-.357a.73.73 0 0 0-.574-.309c-.208-.001-.374.091-.527.292-.212.277-.124.735.176.921.129.08.548.084.698.007Zm4.804 6.811c-.697-.183-1.212-.681-1.378-1.331-.095-.37-.061-.87.081-1.221.148-.365.55-.777.934-.959l.266-.126 12.112-.024-1.783 3.674-10.232-.013Zm.693-1.234c.284-.147.438-.475.35-.75-.173-.54-.865-.639-1.165-.167-.203.321-.126.668.196.885.154.104.45.119.619.032Z"/></svg>

<svg
    xmlns="http://www.w3.org/2000/svg"
    viewBox="0 0 24 24"
    id="vector">
    <path
        id="path"
        d="M 7.633 21.977 C 7.658 14.366 7.633 21.977 7.658 14.366 C 7.8 13.954 8.039 13.652 8.419 13.404 C 8.922 13.076 8.598 13.095 13.73 13.095 C 16.226 13.095 18.278 13.109 18.288 13.127 C 18.307 13.156 16.567 16.662 16.483 16.765 L 11.303 16.813 L 11.302 16.9 L 11.26 21.95 C 7.633 21.977 11.26 21.95 7.633 21.977 Z M 9.743 15.541 C 9.887 15.464 10.055 15.234 10.081 15.078 C 10.161 14.607 9.748 14.227 9.272 14.334 C 8.873 14.424 8.648 14.97 8.873 15.305 C 9.07 15.598 9.445 15.7 9.743 15.541 Z M 3.368 21.903 C 2.729 21.731 2.186 21.153 2.051 20.5 L 2.01 3.51 C 2.141 2.595 2.575 2.113 3.379 2 L 20.578 2 L 20.8 2.089 C 21.313 2.297 21.765 2.767 21.914 3.247 C 22.011 3.561 22.018 4.084 21.93 4.384 C 21.743 5.019 21.165 5.533 20.5 5.656 L 5.726 5.698 L 5.726 13.029 C 5.726 21.106 5.742 20.562 5.486 21.043 C 5.114 21.741 4.178 22.12 3.368 21.902 Z M 4.214 4.402 C 4.376 4.318 4.491 4.105 4.513 3.848 C 4.53 3.659 4.519 3.606 4.441 3.491 C 4.315 3.307 4.083 3.182 3.867 3.182 C 3.659 3.181 3.493 3.273 3.34 3.474 C 3.128 3.751 3.216 4.209 3.516 4.395 C 3.645 4.475 4.064 4.479 4.214 4.402 Z M 9.018 11.213 C 8.321 11.03 7.806 10.532 7.64 9.882 C 7.545 9.512 7.579 9.012 7.721 8.661 C 7.869 8.296 8.271 7.884 8.655 7.702 L 8.921 7.576 L 21.033 7.552 L 19.25 11.226 L 9.018 11.213 Z M 9.711 9.979 C 9.995 9.832 10.149 9.504 10.061 9.229 C 9.888 8.689 9.196 8.59 8.896 9.062 C 8.693 9.383 8.77 9.73 9.092 9.947 C 9.246 10.051 9.542 10.066 9.711 9.979 Z"
        fill="#000000"
        stroke-width="0.038727"/>
</svg>
